X: 223
T: No_79_Bird_Dance_Song_(b).krn
N: Derived from No_79_Bird_Dance_Song_(b).krn
%%abc-version 2.0
%%abcx-abcm2ps-target-version 5.9.1 (29 Sep 2008)
%%abc-creator hum2abc beta
%%abcx-conversion-date 2019/03/15 08:38:45
%%humdrum-veritas 3024325034
%%humdrum-veritas-data 3185815127
%%linebreak <none>
%%barnumbers 0
L: 1/8
M: 4/8
K: Eb clef=bass
[K:clef=bass][M:4/8]z2z3/ G,/ ]|:  
B,7/B,/ ||  
[M:3/8]B,A,B, ||  
[M:4/8](G, E,/) z/ B, B, ||  
[M:3/8](B,G,) z/ A,/ | 
G,G,E, ||  
[M:4/8]E,2G, G, ||  
[M:3/8]G,2-G,/A,/ | 
G,G,E, ||  
[M:5/8]E,2z B,,B,, ||  
[M:3/8]E,2-E,3//E,// | 
E,B,,B,, ||  
[M:5/8]B,,2z E,E, ||  
[M:3/8]E,2-E,/G,/ | 
G,G,E, ||  
[M:4/8]E,2G, A, ||  
[M:3/8]G,2-G,/A,/ | 
G,G,E, | 
E,3 | 
z B,,B,, | 
E,2-E,/E,/ | 
E,B,,B,, ||  
[M:4/8]B,,2z3/ B,/ :|]  
[M:3/8]B,,2z |]  



